/* XPM */
static char * patchknob_xpm[] = {
"124 32 3 1",
" 	c None",
".	c None",
"+	c #000000",
"............................................................................................................................",
"............................................................................................................................",
"............................................................................................................................",
"............................................................................................................................",
"....++++++++++++++++++++....++++++++++++++++++++....++++++++++++++++++++....++++++++++++++++++++....++++............++++....",
"....++++++++++++++++++++....++++++++++++++++++++....++++++++++++++++++++....++++++++++++++++++++....++++............++++....",
"....++++++++++++++++++++....++++++++++++++++++++....++++++++++++++++++++....++++++++++++++++++++....++++............++++....",
"....++++++++++++++++++++....++++++++++++++++++++....++++++++++++++++++++....++++++++++++++++++++....++++............++++....",
"....++++....................++++....................++++............++++....................++++....++++............++++....",
"....++++....................++++....................++++............++++....................++++....++++............++++....",
"....++++....................++++....................++++............++++....................++++....++++............++++....",
"....++++....................++++....................++++............++++....................++++....++++............++++....",
"....++++++++++++++++++++....++++++++++++++++++++....++++............++++....++++++++++++++++++++....++++++++++++++++++++....",
"....++++++++++++++++++++....++++++++++++++++++++....++++............++++....++++++++++++++++++++....++++++++++++++++++++....",
"....++++++++++++++++++++....++++++++++++++++++++....++++............++++....++++++++++++++++++++....++++++++++++++++++++....",
"....++++++++++++++++++++....++++++++++++++++++++....++++............++++....++++++++++++++++++++....++++++++++++++++++++....",
"....................++++....++++....................++++....++++....++++....++++....................................++++....",
"....................++++....++++....................++++....++++....++++....++++....................................++++....",
"....................++++....++++....................++++....++++....++++....++++....................................++++....",
"....................++++....++++....................++++....++++....++++....++++....................................++++....",
"....++++++++++++++++++++....++++++++++++++++++++....++++++++++++++++++++....++++++++++++++++++++....................++++....",
"....++++++++++++++++++++....++++++++++++++++++++....++++++++++++++++++++....++++++++++++++++++++....................++++....",
"....++++++++++++++++++++....++++++++++++++++++++....++++++++++++++++++++....++++++++++++++++++++....................++++....",
"....++++++++++++++++++++....++++++++++++++++++++....++++++++++++++++++++....++++++++++++++++++++....................++++....",
"............................................................++++............................................................",
"............................................................++++............................................................",
"............................................................++++............................................................",
"............................................................++++............................................................",
"............................................................................................................................",
"............................................................................................................................",
"............................................................................................................................",
"............................................................................................................................"};
